Dominus_Dark_Funeral/22/mimes/text-html.svg

<svg xmlns="http://www.w3.org/2000/svg" viewBox="0 0 24 24"><path d="M11.294 1.37v.022a10.63 10.63 0 0 0-9.902 9.902H1.37v1.412h.022a10.63 10.63 0 0 0 9.902 9.902v.022h1.412v-.022a10.619 10.619 0 0 0 9.89-9.902h.034v-1.412h-.033a10.619 10.619 0 0 0-9.89-9.902V1.37H12zm0 1.512v4.162H7.805c.762-2.208 2.02-3.775 3.478-4.162zm1.412 0c1.458.387 2.716 1.954 3.478 4.162h-3.478zm-4.68.806c-.684.905-1.258 2.053-1.667 3.356H4.23a9.272 9.272 0 0 1 3.797-3.356zm7.948 0a9.272 9.272 0 0 1 3.786 3.356h-2.12a11.237 11.237 0 0 0-1.655-3.356zM3.5 8.457h2.484c-.188.894-.309 1.843-.353 2.837H2.816c.077-.994.31-1.954.673-2.837zm3.92 0h3.863v2.837H7.055c.044-.994.165-1.954.364-2.837zm5.297 0h3.864c.199.883.331 1.832.364 2.837h-4.239zm5.299 0h2.495c.364.883.596 1.832.673 2.837h-2.815a17.634 17.634 0 0 0-.353-2.837zm-15.2 4.25h2.826c.033.993.154 1.942.342 2.836H3.5a9.14 9.14 0 0 1-.673-2.837zm4.239 0h4.239v2.836H7.419a15.199 15.199 0 0 1-.364-2.837zm5.651 0h4.24a16.317 16.317 0 0 1-.365 2.836h-3.864zm5.663 0h2.815a9.355 9.355 0 0 1-.673 2.836h-2.495c.188-.894.309-1.843.353-2.837zM4.24 16.956h2.12c.408 1.302.982 2.45 1.655 3.355a9.261 9.261 0 0 1-3.786-3.356zm3.576 0h3.478v4.16c-1.458-.386-2.716-1.953-3.478-4.16zm4.89 0h3.478c-.773 2.207-2.02 3.774-3.478 4.16zm4.935 0h2.119a9.261 9.261 0 0 1-3.786 3.355c.684-.905 1.258-2.053 1.667-3.356z" style="text-indent:0;text-decoration-line:none;text-transform:none" color="#000" fill="#e6e6e6"/></svg>

<?xml version="1.0" encoding="UTF-8" standalone="no"?>
<svg
   xmlns:dc="http://purl.org/dc/elements/1.1/"
   xmlns:cc="http://creativecommons.org/ns#"
   xmlns:rdf="http://www.w3.org/1999/02/22-rdf-syntax-ns#"
   xmlns:svg="http://www.w3.org/2000/svg"
   xmlns="http://www.w3.org/2000/svg"
   xmlns:sodipodi="http://sodipodi.sourceforge.net/DTD/sodipodi-0.dtd"
   xmlns:inkscape="http://www.inkscape.org/namespaces/inkscape"
   viewBox="0 0 24 24"
   version="1.1"
   id="svg4"
   sodipodi:docname="text-html.svg"
   inkscape:version="0.92.4 (5da689c313, 2019-01-14)">
  <metadata
     id="metadata10">
    <rdf:RDF>
      <cc:Work
         rdf:about="">
        <dc:format>image/svg+xml</dc:format>
        <dc:type
           rdf:resource="http://purl.org/dc/dcmitype/StillImage" />
        <dc:title></dc:title>
      </cc:Work>
    </rdf:RDF>
  </metadata>
  <defs
     id="defs8" />
  <sodipodi:namedview
     pagecolor="#ffffff"
     bordercolor="#666666"
     borderopacity="1"
     objecttolerance="10"
     gridtolerance="10"
     guidetolerance="10"
     inkscape:pageopacity="0"
     inkscape:pageshadow="2"
     inkscape:window-width="1112"
     inkscape:window-height="480"
     id="namedview6"
     showgrid="false"
     inkscape:zoom="9.8333333"
     inkscape:cx="1.0677966"
     inkscape:cy="12"
     inkscape:window-x="0"
     inkscape:window-y="25"
     inkscape:window-maximized="0"
     inkscape:current-layer="svg4" />
  <path
     d="M 11.294,1.37 V 1.392 A 10.63,10.63 0 0 0 1.392,11.294 H 1.37 v 1.412 h 0.022 a 10.63,10.63 0 0 0 9.902,9.902 v 0.022 h 1.412 v -0.022 a 10.619,10.619 0 0 0 9.89,-9.902 H 22.63 V 11.294 H 22.597 A 10.619,10.619 0 0 0 12.707,1.392 V 1.37 H 12 Z m 0,1.512 V 7.044 H 7.805 C 8.567,4.836 9.825,3.269 11.283,2.882 Z m 1.412,0 c 1.458,0.387 2.716,1.954 3.478,4.162 H 12.706 Z M 8.026,3.688 C 7.342,4.593 6.768,5.741 6.359,7.044 H 4.23 A 9.272,9.272 0 0 1 8.027,3.688 Z m 7.948,0 A 9.272,9.272 0 0 1 19.76,7.044 H 17.64 A 11.237,11.237 0 0 0 15.985,3.688 Z M 3.5,8.457 H 5.984 C 5.796,9.351 5.675,10.3 5.631,11.294 H 2.816 C 2.893,10.3 3.126,9.34 3.489,8.457 Z m 3.92,0 h 3.863 v 2.837 H 7.055 C 7.099,10.3 7.22,9.34 7.419,8.457 Z m 5.297,0 h 3.864 c 0.199,0.883 0.331,1.832 0.364,2.837 h -4.239 z m 5.299,0 h 2.495 c 0.364,0.883 0.596,1.832 0.673,2.837 H 18.369 A 17.634,17.634 0 0 0 18.016,8.457 Z m -15.2,4.25 h 2.826 c 0.033,0.993 0.154,1.942 0.342,2.836 H 3.5 A 9.14,9.14 0 0 1 2.827,12.706 Z m 4.239,0 h 4.239 v 2.836 H 7.419 A 15.199,15.199 0 0 1 7.055,12.706 Z m 5.651,0 h 4.24 a 16.317,16.317 0 0 1 -0.365,2.836 h -3.864 z m 5.663,0 h 2.815 a 9.355,9.355 0 0 1 -0.673,2.836 h -2.495 c 0.188,-0.894 0.309,-1.843 0.353,-2.837 z M 4.24,16.956 h 2.12 c 0.408,1.302 0.982,2.45 1.655,3.355 A 9.261,9.261 0 0 1 4.229,16.955 Z m 3.576,0 h 3.478 v 4.16 C 9.836,20.73 8.578,19.163 7.816,16.956 Z m 4.89,0 h 3.478 c -0.773,2.207 -2.02,3.774 -3.478,4.16 z m 4.935,0 h 2.119 a 9.261,9.261 0 0 1 -3.786,3.355 c 0.684,-0.905 1.258,-2.053 1.667,-3.356 z"
     style="color:#000000;text-indent:0;text-decoration:none;text-decoration-line:none;text-transform:none;fill:#e6e6e6"
     id="path2"
     inkscape:connector-curvature="0" />
</svg>
